X:1
T:Title
%%score { ( 1 4 ) | ( 2 3 ) }
L:1/8
M:4/4
K:D
V:1 treble nm="Grand Piano"
V:4 treble 
V:2 bass 
V:3 bass 
V:1
 z4 z2[Q:1/4=100] F>G | [A,FA]2 [B,=F^G][A,^FA] [D=GB]2 [DFA][A,DF] | %2
 [CE]3 [G,CF] [F,D]2 [A,DF]>[A,EG] | [DFA]2 [A,D][A,D] [A,CE]2 [A,DF]2 | [A,CE]6 [A,DF]>[A,EG] | %5
 [A,FA]2 [B,=F^G][A,^FA] [=GB]2 [FA]F | B3 B [FA]2 [EA]2 | [Dd]3 [FB] [E^G]2 [DE]2 |[M:3/4] [CA]6 | %9
[M:1/4] A2 |[M:4/4] A3 A A2 A2 | [FA]3 [GB] [FA]2 [F^A]2 | z4 z2 ^A2 | [DB]6 z2 | %14
 [DAd]3 [DGB] [DFA]2 [A,DF][A,DF] |[M:9/8] [A,EA]2 [A,CG]- [A,CG] [A,DF]2- [A,DF] [A,DF]2 | %16
[M:4/4] [G,EG]2 [=Fd]2 [^Fd]2 c-[Gc] |[M:3/4] [Fd]6 |] %18
V:2
 z4 z2 D>E | D,2 D,D, D,2 D,F, | A,3 A,, D,2 D,>D, | D,2 F,F, E,2 D,2 | A,,6 D,>D, | %5
 D,2 D,D, [D,D]2 [D,D][D,D] | [G,DG]3 [G,DG][K:bass] [D,D]2 [C,A,]2 | %7
 [B,,F,]3 [D,B,] [E,B,]2 [E,^G,]2 |[M:3/4] [A,,A,]6 |[M:1/4][K:treble] [A,CE]2 | %10
[M:4/4] [A,CE]3 [A,DF] [A,EG]2 [A,CE]2 | [D,D]3 [D,D] [D,D]2 [E,C]2 | %12
 [D,B,]2 [B,,B,][B,,B,] [F,^A,F]2 .[F,CF]2 | z2 D,F, B,2 A,G, | F,3 G, D,2 D,D, | %15
[M:9/8] C,2 A,,- A,, D,2- D, =C,2 |[M:4/4] B,,2 [^A,,^G,]2 [=A,,A,]2 [A,,A,]2 |[M:3/4] [D,A,]6 |] %18
V:3
 z4 z2 [D,A,]2 | x8 | x8 | x8 | x8 | x8 | x4[K:bass] x4 | x8 |[M:3/4] x6 |[M:1/4][K:treble] x2 | %10
[M:4/4] x8 | x8 | x8 | B,,6 z2 | x8 |[M:9/8] x9 |[M:4/4] x8 |[M:3/4] x6 |] %18
V:4
 x8 | x8 | x8 | x8 | x8 | x8 | x8 | x8 |[M:3/4] x6 |[M:1/4] x2 |[M:4/4] x8 | x8 | %12
 [FB]2 [Fd][Fd] c2 z E | B,4 z2 [EAc]2 | x8 |[M:9/8] x9 |[M:4/4] z4 z2 .E2 |[M:3/4] x6 |] %18

